X:1
T:The Jeelie Piece Song
M:4/4
L:1/8
K:G
 GA| B2 BB B2 AB| cc cB A3 A| c2 c2 c2 Bc| d2 dc B3| d| ee ee gg fe|\
 d2 dc B3 B| c2 BA c2 A2| c2 BA G2||
